public/images/services/dark/4.svg

<svg width="80" height="80" viewBox="0 0 80 80" fill="none" xmlns="http://www.w3.org/2000/svg">
<g id="Frame" clip-path="url(#clip0_3255_8070)">
<path id="Vector" d="M31.5366 70.9677C48.6075 75.5418 66.1543 65.4112 70.7284 48.3403C75.3026 31.2693 65.1719 13.7226 48.101 9.14842C31.0301 4.57428 13.4833 14.7049 8.9092 31.7758C4.33506 48.8468 14.4657 66.3935 31.5366 70.9677Z" fill="white"/>
<g id="Group">
<path id="Vector_2" d="M33.7152 47.1887C33.5751 47.1512 33.4468 47.0652 33.358 46.9362L30.2995 42.5003C30.194 42.3472 30.161 42.1559 30.2092 41.9762C30.2572 41.7968 30.3818 41.6478 30.5494 41.5678L35.416 39.2554C35.7321 39.105 36.1103 39.2396 36.2607 39.5557C36.4107 39.8721 36.2764 40.2503 35.9601 40.4003L31.766 42.3934L34.4016 46.2164C34.6005 46.5048 34.5277 46.8995 34.2397 47.0982C34.0802 47.2081 33.8884 47.2351 33.7152 47.1887Z" fill="#6C4796"/>
<path id="Vector_3" d="M41.5387 49.2849C41.3655 49.2385 41.2128 49.1192 41.1301 48.9443C40.9796 48.6282 41.1143 48.2501 41.4304 48.0996L45.6244 46.1066L42.9888 42.2836C42.7902 41.9956 42.8626 41.6008 43.151 41.4019C43.439 41.2033 43.8342 41.2758 44.0324 41.5641L47.0909 46C47.1963 46.1531 47.2293 46.3443 47.1812 46.5237C47.1331 46.7035 47.0089 46.8526 46.841 46.9325L41.9743 49.2449C41.8329 49.3121 41.6788 49.3225 41.5387 49.2849Z" fill="#6C4796"/>
<path id="Vector_4" d="M35.5456 50.3916C35.5036 50.3803 35.4624 50.3645 35.4221 50.3442C35.11 50.1859 34.9852 49.8041 35.1435 49.492L40.7549 38.4283C40.9133 38.1162 41.2947 37.9914 41.6071 38.1498C41.9192 38.3081 42.0441 38.6895 41.8857 39.002L36.2743 50.0657C36.1362 50.3378 35.8289 50.4675 35.5456 50.3916Z" fill="#6C4796"/>
<path id="Vector_5" d="M49.6723 61.0235L20.8038 53.2882C18.5369 52.6808 17.1864 50.3422 17.794 48.0749L24.3592 23.573C24.9667 21.306 27.3055 19.9557 29.5725 20.5631L58.4409 28.2984C60.7079 28.9058 62.0582 31.2447 61.4508 33.5116L54.8855 58.0136C54.278 60.2809 51.9392 61.6309 49.6723 61.0235ZM29.2443 21.7878C27.6526 21.3613 26.0105 22.3094 25.584 23.9012L19.0187 48.4031C18.5922 49.9948 19.5403 51.637 21.132 52.0635L50.0004 59.7987C51.5922 60.2252 53.2343 59.2771 53.6608 57.6854L60.2261 33.1835C60.6526 31.5918 59.7045 29.9496 58.1128 29.5231L29.2443 21.7878Z" fill="#6C4796"/>
<path id="Vector_6" d="M59.3112 39.0418L23.4444 29.4313C23.1061 29.3406 22.9054 28.9931 22.9961 28.6548C23.0866 28.3169 23.4342 28.1159 23.7725 28.2066L59.6393 37.8171C59.9777 37.9077 60.1782 38.2555 60.0876 38.5935C59.997 38.9318 59.6495 39.1324 59.3112 39.0418Z" fill="#6C4796"/>
<path id="Vector_7" d="M34.0791 29.1402C33.0109 28.8539 32.3742 27.7512 32.6604 26.683C32.9468 25.6145 34.0494 24.9781 35.1176 25.2644C36.1861 25.5507 36.8225 26.653 36.5362 27.7215C36.25 28.7897 35.1476 29.4265 34.0791 29.1402ZM34.7894 26.4891C34.3964 26.3838 33.9905 26.6179 33.8852 27.0112C33.7798 27.4045 34.0143 27.8101 34.4072 27.9154C34.8005 28.0208 35.2061 27.7867 35.3115 27.3934C35.4169 27 35.1827 26.5945 34.7894 26.4891Z" fill="#6C4796"/>
<path id="Vector_8" d="M28.1298 27.5259C27.0613 27.2396 26.4249 26.1373 26.7112 25.0687C26.9975 24.0002 28.0998 23.3638 29.1684 23.6501C30.2369 23.9364 30.8733 25.0387 30.587 26.1073C30.3007 27.1758 29.1984 27.8122 28.1298 27.5259ZM28.8402 24.8748C28.4472 24.7695 28.0412 25.0039 27.9359 25.3969C27.8305 25.7902 28.065 26.1959 28.458 26.3012C28.8513 26.4066 29.2569 26.1724 29.3623 25.7791C29.4676 25.3861 29.2335 24.9802 28.8402 24.8748Z" fill="#6C4796"/>
<path id="Vector_9" d="M40.028 30.754C38.9598 30.4677 38.3234 29.3655 38.6097 28.2969C38.896 27.2287 39.9982 26.5923 41.0665 26.8785C42.135 27.1649 42.7714 28.2671 42.4852 29.3353C42.1989 30.4039 41.0966 31.0403 40.028 30.754ZM40.7384 28.1029C40.3454 27.9976 39.9399 28.2318 39.8345 28.6251C39.7291 29.0184 39.9632 29.424 40.3562 29.5293C40.7495 29.6346 41.1551 29.4005 41.2605 29.0072C41.3658 28.6139 41.1317 28.2083 40.7384 28.1029Z" fill="#6C4796"/>
</g>
</g>
<defs>
<clipPath id="clip0_3255_8070">
<rect width="64" height="64" fill="white" transform="translate(17.1914 0.866211) rotate(15)"/>
</clipPath>
</defs>
</svg>

<svg width="80" height="80" fill="none" xmlns="http://www.w3.org/2000/svg"><g clip-path="url(#a)"><path d="M31.537 70.968c17.07 4.574 34.617-5.557 39.191-22.628 4.575-17.07-5.556-34.617-22.627-39.192-17.07-4.574-34.618 5.557-39.192 22.628-4.574 17.07 5.557 34.617 22.628 39.192Z" fill="#fff"/><g fill="#6C4796"><path d="M33.715 47.189a.63.63 0 0 1-.357-.253L30.3 42.5a.634.634 0 0 1 .25-.932l4.866-2.313a.634.634 0 1 1 .544 1.145l-4.194 1.993 2.636 3.823a.634.634 0 0 1-.687.973ZM41.539 49.285a.634.634 0 0 1-.108-1.185l4.193-1.993-2.635-3.823a.634.634 0 0 1 1.043-.72L47.091 46a.634.634 0 0 1-.25.932l-4.867 2.313a.631.631 0 0 1-.435.04ZM35.546 50.392a.634.634 0 0 1-.402-.9l5.61-11.064a.634.634 0 0 1 1.132.574l-5.612 11.064a.634.634 0 0 1-.728.326Z"/><path d="m49.672 61.023-28.868-7.735a4.261 4.261 0 0 1-3.01-5.213l6.565-24.502a4.262 4.262 0 0 1 5.213-3.01l28.869 7.735a4.262 4.262 0 0 1 3.01 5.214l-6.566 24.502a4.261 4.261 0 0 1-5.213 3.01ZM29.244 21.788a2.992 2.992 0 0 0-3.66 2.113l-6.565 24.502a2.992 2.992 0 0 0 2.113 3.66L50 59.8a2.992 2.992 0 0 0 3.66-2.114l6.566-24.502a2.992 2.992 0 0 0-2.113-3.66l-28.869-7.735Z"/><path d="m59.311 39.042-35.867-9.61a.634.634 0 1 1 .329-1.225l35.866 9.61a.634.634 0 1 1-.328 1.225ZM34.08 29.14a2.01 2.01 0 0 1-1.42-2.457 2.009 2.009 0 0 1 2.458-1.419 2.009 2.009 0 0 1 1.418 2.457 2.009 2.009 0 0 1-2.457 1.42Zm.71-2.65a.74.74 0 1 0-.381 1.428.74.74 0 0 0 .38-1.429ZM28.13 27.526a2.009 2.009 0 0 1-1.419-2.457 2.009 2.009 0 0 1 2.457-1.419 2.009 2.009 0 0 1 1.419 2.457 2.009 2.009 0 0 1-2.457 1.419Zm.71-2.651a.74.74 0 0 0-.382 1.426.74.74 0 0 0 .382-1.426ZM40.028 30.754a2.009 2.009 0 0 1-1.418-2.457 2.009 2.009 0 0 1 2.456-1.419 2.009 2.009 0 0 1 1.42 2.457 2.009 2.009 0 0 1-2.458 1.419Zm.71-2.651a.739.739 0 1 0-.38 1.428.739.739 0 0 0 .38-1.428Z"/></g></g><defs><clipPath id="a"><path fill="#fff" transform="rotate(15 5.306 65.724)" d="M0 0h64v64H0z"/></clipPath></defs></svg>
